X:6484
T:Graf Spey
M:C
L:1/8
K:D Major
FEDE FAA2|BAdA BAdA|FEDE FAA2|BAdA FEE2:|!
fgfe dcdB|AFF2 ABde|fafe dcdB|BAdF FEE2|!
fddc dBAF|AFF2 ABde|fbba fafe|dBAF FEE2|]!
faa^f a4|fbb^a b3=a|fafe d3e|faba feeg:|!
fddc dBAF|A2Bd dBAF|ABde fded|BAdF FEE2:|!
fada fada|^gbeb gbeb|fada fada|Bcde fee2|!
a2b^g af=ge|fdec dBAF|ABde fded|BAdF FEE2|]!


